images/50718349.svg

<?xml version="1.0" encoding="UTF-8"?>
<svg xmlns="http://www.w3.org/2000/svg" xmlns:xlink="http://www.w3.org/1999/xlink" width="300pt" height="300pt" viewBox="0 0 300 300" version="1.1">
<defs>
<g>
<symbol overflow="visible" id="glyph0-0">
<path style="stroke:none;" d="M 0.453125 1.59375 L 0.453125 -6.34375 L 4.953125 -6.34375 L 4.953125 1.59375 Z M 0.953125 1.09375 L 4.453125 1.09375 L 4.453125 -5.84375 L 0.953125 -5.84375 Z M 0.953125 1.09375 "/>
</symbol>
<symbol overflow="visible" id="glyph0-1">
<path style="stroke:none;" d="M 0.890625 -6.5625 L 4.65625 -6.5625 L 4.65625 -5.8125 L 1.765625 -5.8125 L 1.765625 -3.875 L 4.375 -3.875 L 4.375 -3.140625 L 1.765625 -3.140625 L 1.765625 0 L 0.890625 0 Z M 0.890625 -6.5625 "/>
</symbol>
<symbol overflow="visible" id="glyph0-2">
<path style="stroke:none;" d="M 0.890625 -6.5625 L 2.078125 -6.5625 L 4.984375 -1.078125 L 4.984375 -6.5625 L 5.84375 -6.5625 L 5.84375 0 L 4.65625 0 L 1.75 -5.484375 L 1.75 0 L 0.890625 0 Z M 0.890625 -6.5625 "/>
</symbol>
<symbol overflow="visible" id="glyph0-3">
<path style="stroke:none;" d="M 0.890625 -6.5625 L 1.765625 -6.5625 L 1.765625 -3.875 L 5 -3.875 L 5 -6.5625 L 5.890625 -6.5625 L 5.890625 0 L 5 0 L 5 -3.125 L 1.765625 -3.125 L 1.765625 0 L 0.890625 0 Z M 0.890625 -6.5625 "/>
</symbol>
<symbol overflow="visible" id="glyph0-4">
<path style="stroke:none;" d="M 3.546875 -5.953125 C 2.898438 -5.953125 2.382812 -5.710938 2 -5.234375 C 1.625 -4.753906 1.4375 -4.101562 1.4375 -3.28125 C 1.4375 -2.445312 1.625 -1.789062 2 -1.3125 C 2.382812 -0.832031 2.898438 -0.59375 3.546875 -0.59375 C 4.191406 -0.59375 4.703125 -0.832031 5.078125 -1.3125 C 5.453125 -1.789062 5.640625 -2.445312 5.640625 -3.28125 C 5.640625 -4.101562 5.453125 -4.753906 5.078125 -5.234375 C 4.703125 -5.710938 4.191406 -5.953125 3.546875 -5.953125 Z M 3.546875 -6.6875 C 4.460938 -6.6875 5.195312 -6.375 5.75 -5.75 C 6.300781 -5.132812 6.578125 -4.3125 6.578125 -3.28125 C 6.578125 -2.238281 6.300781 -1.410156 5.75 -0.796875 C 5.195312 -0.179688 4.460938 0.125 3.546875 0.125 C 2.617188 0.125 1.878906 -0.179688 1.328125 -0.796875 C 0.773438 -1.410156 0.5 -2.238281 0.5 -3.28125 C 0.5 -4.3125 0.773438 -5.132812 1.328125 -5.75 C 1.878906 -6.375 2.617188 -6.6875 3.546875 -6.6875 Z M 3.546875 -6.6875 "/>
</symbol>
</g>
</defs>
<g id="surface25909">
<rect x="0" y="0" width="300" height="300" style="fill:rgb(100%,100%,100%);fill-opacity:1;stroke:none;"/>
<path style="fill:none;stroke-width:1.2;stroke-linecap:butt;stroke-linejoin:miter;stroke:rgb(20%,80%,80%);stroke-opacity:1;stroke-miterlimit:10;" d="M 60.703125 166.269531 L 59.988281 153.640625 "/>
<path style="fill:none;stroke-width:1.2;stroke-linecap:butt;stroke-linejoin:miter;stroke:rgb(0%,0%,0%);stroke-opacity:1;stroke-miterlimit:10;" d="M 59.988281 153.640625 L 59.273438 141.007812 "/>
<path style=" stroke:none;fill-rule:nonzero;fill:rgb(100%,100%,100%);fill-opacity:1;" d="M 57.703125 160.769531 L 63.703125 160.769531 L 63.703125 171.769531 L 57.703125 171.769531 Z M 57.703125 160.769531 "/>
<g style="fill:rgb(20%,80%,80%);fill-opacity:1;">
  <use xlink:href="#glyph0-1" x="57.703125" y="169.432617"/>
</g>
<path style="fill:none;stroke-width:1.2;stroke-linecap:butt;stroke-linejoin:miter;stroke:rgb(0%,0%,0%);stroke-opacity:1;stroke-miterlimit:10;" d="M 59.273438 141.007812 L 36.679688 129.613281 "/>
<path style="fill:none;stroke-width:1.2;stroke-linecap:butt;stroke-linejoin:miter;stroke:rgb(0%,0%,0%);stroke-opacity:1;stroke-miterlimit:10;" d="M 59.695312 134.550781 L 41.621094 125.4375 "/>
<path style="fill:none;stroke-width:1.2;stroke-linecap:butt;stroke-linejoin:miter;stroke:rgb(0%,0%,0%);stroke-opacity:1;stroke-miterlimit:10;" d="M 80.4375 127.136719 L 59.273438 141.007812 "/>
<path style="fill:none;stroke-width:1.2;stroke-linecap:butt;stroke-linejoin:miter;stroke:rgb(0%,0%,0%);stroke-opacity:1;stroke-miterlimit:10;" d="M 36.679688 129.613281 L 35.25 104.351562 "/>
<path style="fill:none;stroke-width:1.2;stroke-linecap:butt;stroke-linejoin:miter;stroke:rgb(0%,0%,0%);stroke-opacity:1;stroke-miterlimit:10;" d="M 35.25 104.351562 L 56.414062 90.480469 "/>
<path style="fill:none;stroke-width:1.2;stroke-linecap:butt;stroke-linejoin:miter;stroke:rgb(0%,0%,0%);stroke-opacity:1;stroke-miterlimit:10;" d="M 40.628906 107.941406 L 57.5625 96.847656 "/>
<path style="fill:none;stroke-width:1.2;stroke-linecap:butt;stroke-linejoin:miter;stroke:rgb(0%,0%,0%);stroke-opacity:1;stroke-miterlimit:10;" d="M 56.414062 90.480469 L 79.007812 101.875 "/>
<path style="fill:none;stroke-width:1.2;stroke-linecap:butt;stroke-linejoin:miter;stroke:rgb(0%,0%,0%);stroke-opacity:1;stroke-miterlimit:10;" d="M 79.007812 101.875 L 89.589844 94.941406 "/>
<path style="fill:none;stroke-width:1.2;stroke-linecap:butt;stroke-linejoin:miter;stroke:rgb(20%,80%,80%);stroke-opacity:1;stroke-miterlimit:10;" d="M 89.589844 94.941406 L 100.171875 88.003906 "/>
<path style="fill:none;stroke-width:1.2;stroke-linecap:butt;stroke-linejoin:miter;stroke:rgb(0%,0%,0%);stroke-opacity:1;stroke-miterlimit:10;" d="M 79.007812 101.875 L 80.4375 127.136719 "/>
<path style="fill:none;stroke-width:1.2;stroke-linecap:butt;stroke-linejoin:miter;stroke:rgb(0%,0%,0%);stroke-opacity:1;stroke-miterlimit:10;" d="M 73.207031 104.738281 L 74.351562 124.949219 "/>
<path style=" stroke:none;fill-rule:nonzero;fill:rgb(100%,100%,100%);fill-opacity:1;" d="M 97.171875 82.503906 L 103.171875 82.503906 L 103.171875 93.503906 L 97.171875 93.503906 Z M 97.171875 82.503906 "/>
<g style="fill:rgb(20%,80%,80%);fill-opacity:1;">
  <use xlink:href="#glyph0-1" x="97.171875" y="91.166992"/>
</g>
<path style="fill:none;stroke-width:1.2;stroke-linecap:butt;stroke-linejoin:miter;stroke:rgb(0%,0%,0%);stroke-opacity:1;stroke-miterlimit:10;" d="M 80.4375 127.136719 L 91.734375 132.835938 "/>
<path style="fill:none;stroke-width:1.2;stroke-linecap:butt;stroke-linejoin:miter;stroke:rgb(0%,0%,100%);stroke-opacity:1;stroke-miterlimit:10;" d="M 91.734375 132.835938 L 103.03125 138.53125 "/>
<path style="fill:none;stroke-width:1.2;stroke-linecap:butt;stroke-linejoin:miter;stroke:rgb(0%,0%,100%);stroke-opacity:1;stroke-miterlimit:10;" d="M 103.03125 138.53125 L 113.613281 131.597656 "/>
<path style="fill:none;stroke-width:1.2;stroke-linecap:butt;stroke-linejoin:miter;stroke:rgb(0%,0%,0%);stroke-opacity:1;stroke-miterlimit:10;" d="M 113.613281 131.597656 L 124.195312 124.660156 "/>
<path style=" stroke:none;fill-rule:nonzero;fill:rgb(100%,100%,100%);fill-opacity:1;" d="M 96.03125 133.03125 L 110.03125 133.03125 L 110.03125 144.03125 L 96.03125 144.03125 Z M 96.03125 133.03125 "/>
<g style="fill:rgb(0%,0%,100%);fill-opacity:1;">
  <use xlink:href="#glyph0-2" x="96.03125" y="141.694336"/>
  <use xlink:href="#glyph0-3" x="103.008789" y="141.694336"/>
</g>
<path style="fill:none;stroke-width:1.2;stroke-linecap:butt;stroke-linejoin:miter;stroke:rgb(0%,0%,0%);stroke-opacity:1;stroke-miterlimit:10;" d="M 124.195312 124.660156 L 124.804688 112.023438 "/>
<path style="fill:none;stroke-width:1.2;stroke-linecap:butt;stroke-linejoin:miter;stroke:rgb(0%,0%,100%);stroke-opacity:1;stroke-miterlimit:10;" d="M 124.804688 112.023438 L 125.414062 99.386719 "/>
<path style="fill:none;stroke-width:1.2;stroke-linecap:butt;stroke-linejoin:miter;stroke:rgb(0%,0%,0%);stroke-opacity:1;stroke-miterlimit:10;" d="M 130.261719 122.421875 L 130.75 112.3125 "/>
<path style="fill:none;stroke-width:1.2;stroke-linecap:butt;stroke-linejoin:miter;stroke:rgb(0%,0%,100%);stroke-opacity:1;stroke-miterlimit:10;" d="M 130.75 112.3125 L 131.238281 102.203125 "/>
<path style="fill:none;stroke-width:1.2;stroke-linecap:butt;stroke-linejoin:miter;stroke:rgb(0%,0%,100%);stroke-opacity:1;stroke-miterlimit:10;" d="M 147.855469 133.632812 L 136.023438 129.144531 "/>
<path style="fill:none;stroke-width:1.2;stroke-linecap:butt;stroke-linejoin:miter;stroke:rgb(0%,0%,0%);stroke-opacity:1;stroke-miterlimit:10;" d="M 136.023438 129.144531 L 124.195312 124.660156 "/>
<path style="fill:none;stroke-width:1.2;stroke-linecap:butt;stroke-linejoin:miter;stroke:rgb(0%,0%,100%);stroke-opacity:1;stroke-miterlimit:10;" d="M 125.414062 99.386719 L 137.621094 96.0625 "/>
<path style="fill:none;stroke-width:1.2;stroke-linecap:butt;stroke-linejoin:miter;stroke:rgb(0%,0%,0%);stroke-opacity:1;stroke-miterlimit:10;" d="M 137.621094 96.0625 L 149.828125 92.734375 "/>
<path style=" stroke:none;fill-rule:nonzero;fill:rgb(100%,100%,100%);fill-opacity:1;" d="M 122.414062 93.886719 L 129.414062 93.886719 L 129.414062 104.886719 L 122.414062 104.886719 Z M 122.414062 93.886719 "/>
<g style="fill:rgb(0%,0%,100%);fill-opacity:1;">
  <use xlink:href="#glyph0-2" x="122.414062" y="102.549805"/>
</g>
<path style="fill:none;stroke-width:1.2;stroke-linecap:butt;stroke-linejoin:miter;stroke:rgb(0%,0%,0%);stroke-opacity:1;stroke-miterlimit:10;" d="M 149.828125 92.734375 L 163.695312 113.898438 "/>
<path style="fill:none;stroke-width:1.2;stroke-linecap:butt;stroke-linejoin:miter;stroke:rgb(0%,0%,0%);stroke-opacity:1;stroke-miterlimit:10;" d="M 156.195312 91.589844 L 167.289062 108.519531 "/>
<path style="fill:none;stroke-width:1.2;stroke-linecap:butt;stroke-linejoin:miter;stroke:rgb(0%,0%,0%);stroke-opacity:1;stroke-miterlimit:10;" d="M 161.21875 70.144531 L 149.828125 92.734375 "/>
<path style="fill:none;stroke-width:1.2;stroke-linecap:butt;stroke-linejoin:miter;stroke:rgb(0%,0%,0%);stroke-opacity:1;stroke-miterlimit:10;" d="M 163.695312 113.898438 L 176.328125 113.183594 "/>
<path style="fill:none;stroke-width:1.2;stroke-linecap:butt;stroke-linejoin:miter;stroke:rgb(0%,0%,100%);stroke-opacity:1;stroke-miterlimit:10;" d="M 176.328125 113.183594 L 188.960938 112.46875 "/>
<path style="fill:none;stroke-width:1.2;stroke-linecap:butt;stroke-linejoin:miter;stroke:rgb(0%,0%,0%);stroke-opacity:1;stroke-miterlimit:10;" d="M 163.695312 113.898438 L 155.777344 123.765625 "/>
<path style="fill:none;stroke-width:1.2;stroke-linecap:butt;stroke-linejoin:miter;stroke:rgb(0%,0%,100%);stroke-opacity:1;stroke-miterlimit:10;" d="M 155.777344 123.765625 L 147.855469 133.632812 "/>
<path style="fill:none;stroke-width:1.2;stroke-linecap:butt;stroke-linejoin:miter;stroke:rgb(0%,0%,100%);stroke-opacity:1;stroke-miterlimit:10;" d="M 188.960938 112.46875 L 194.65625 101.171875 "/>
<path style="fill:none;stroke-width:1.2;stroke-linecap:butt;stroke-linejoin:miter;stroke:rgb(0%,0%,0%);stroke-opacity:1;stroke-miterlimit:10;" d="M 194.65625 101.171875 L 200.355469 89.878906 "/>
<path style="fill:none;stroke-width:1.2;stroke-linecap:butt;stroke-linejoin:miter;stroke:rgb(0%,0%,100%);stroke-opacity:1;stroke-miterlimit:10;" d="M 184.785156 107.53125 L 189.339844 98.492188 "/>
<path style="fill:none;stroke-width:1.2;stroke-linecap:butt;stroke-linejoin:miter;stroke:rgb(0%,0%,0%);stroke-opacity:1;stroke-miterlimit:10;" d="M 189.339844 98.492188 L 193.898438 89.457031 "/>
<path style=" stroke:none;fill-rule:nonzero;fill:rgb(100%,100%,100%);fill-opacity:1;" d="M 185.960938 106.96875 L 192.960938 106.96875 L 192.960938 117.96875 L 185.960938 117.96875 Z M 185.960938 106.96875 "/>
<g style="fill:rgb(0%,0%,100%);fill-opacity:1;">
  <use xlink:href="#glyph0-2" x="185.960938" y="115.631836"/>
</g>
<path style="fill:none;stroke-width:1.2;stroke-linecap:butt;stroke-linejoin:miter;stroke:rgb(0%,0%,0%);stroke-opacity:1;stroke-miterlimit:10;" d="M 200.355469 89.878906 L 193.417969 79.296875 "/>
<path style="fill:none;stroke-width:1.2;stroke-linecap:butt;stroke-linejoin:miter;stroke:rgb(0%,0%,100%);stroke-opacity:1;stroke-miterlimit:10;" d="M 193.417969 79.296875 L 186.484375 68.714844 "/>
<path style="fill:none;stroke-width:1.2;stroke-linecap:butt;stroke-linejoin:miter;stroke:rgb(0%,0%,0%);stroke-opacity:1;stroke-miterlimit:10;" d="M 200.355469 89.878906 L 212.984375 89.164062 "/>
<path style="fill:none;stroke-width:1.2;stroke-linecap:butt;stroke-linejoin:miter;stroke:rgb(0%,0%,100%);stroke-opacity:1;stroke-miterlimit:10;" d="M 212.984375 89.164062 L 225.617188 88.449219 "/>
<path style="fill:none;stroke-width:1.2;stroke-linecap:butt;stroke-linejoin:miter;stroke:rgb(0%,0%,100%);stroke-opacity:1;stroke-miterlimit:10;" d="M 186.484375 68.714844 L 173.851562 69.429688 "/>
<path style="fill:none;stroke-width:1.2;stroke-linecap:butt;stroke-linejoin:miter;stroke:rgb(0%,0%,0%);stroke-opacity:1;stroke-miterlimit:10;" d="M 173.851562 69.429688 L 161.21875 70.144531 "/>
<path style="fill:none;stroke-width:1.2;stroke-linecap:butt;stroke-linejoin:miter;stroke:rgb(0%,0%,100%);stroke-opacity:1;stroke-miterlimit:10;" d="M 184.292969 74.800781 L 174.1875 75.371094 "/>
<path style="fill:none;stroke-width:1.2;stroke-linecap:butt;stroke-linejoin:miter;stroke:rgb(0%,0%,0%);stroke-opacity:1;stroke-miterlimit:10;" d="M 174.1875 75.371094 L 164.082031 75.945312 "/>
<path style=" stroke:none;fill-rule:nonzero;fill:rgb(100%,100%,100%);fill-opacity:1;" d="M 183.484375 63.214844 L 190.484375 63.214844 L 190.484375 74.214844 L 183.484375 74.214844 Z M 183.484375 63.214844 "/>
<g style="fill:rgb(0%,0%,100%);fill-opacity:1;">
  <use xlink:href="#glyph0-2" x="183.484375" y="71.87793"/>
</g>
<path style="fill:none;stroke-width:1.2;stroke-linecap:butt;stroke-linejoin:miter;stroke:rgb(0%,0%,100%);stroke-opacity:1;stroke-miterlimit:10;" d="M 225.617188 88.449219 L 232.550781 99.027344 "/>
<path style="fill:none;stroke-width:1.2;stroke-linecap:butt;stroke-linejoin:miter;stroke:rgb(0%,0%,0%);stroke-opacity:1;stroke-miterlimit:10;" d="M 232.550781 99.027344 L 239.488281 109.609375 "/>
<path style=" stroke:none;fill-rule:nonzero;fill:rgb(100%,100%,100%);fill-opacity:1;" d="M 218.617188 82.949219 L 232.617188 82.949219 L 232.617188 93.949219 L 218.617188 93.949219 Z M 218.617188 82.949219 "/>
<g style="fill:rgb(0%,0%,100%);fill-opacity:1;">
  <use xlink:href="#glyph0-2" x="218.617188" y="91.612305"/>
  <use xlink:href="#glyph0-3" x="225.594727" y="91.612305"/>
</g>
<path style="fill:none;stroke-width:1.2;stroke-linecap:butt;stroke-linejoin:miter;stroke:rgb(0%,0%,0%);stroke-opacity:1;stroke-miterlimit:10;" d="M 239.488281 109.609375 L 264.75 108.179688 "/>
<path style="fill:none;stroke-width:1.2;stroke-linecap:butt;stroke-linejoin:miter;stroke:rgb(0%,0%,0%);stroke-opacity:1;stroke-miterlimit:10;" d="M 239.488281 109.609375 L 228.09375 132.203125 "/>
<path style="fill:none;stroke-width:1.2;stroke-linecap:butt;stroke-linejoin:miter;stroke:rgb(0%,0%,100%);stroke-opacity:1;stroke-miterlimit:10;" d="M 147.855469 133.632812 L 151.179688 145.839844 "/>
<path style="fill:none;stroke-width:1.2;stroke-linecap:butt;stroke-linejoin:miter;stroke:rgb(0%,0%,0%);stroke-opacity:1;stroke-miterlimit:10;" d="M 151.179688 145.839844 L 154.503906 158.042969 "/>
<path style=" stroke:none;fill-rule:nonzero;fill:rgb(100%,100%,100%);fill-opacity:1;" d="M 144.855469 128.132812 L 151.855469 128.132812 L 151.855469 139.132812 L 144.855469 139.132812 Z M 144.855469 128.132812 "/>
<g style="fill:rgb(0%,0%,100%);fill-opacity:1;">
  <use xlink:href="#glyph0-2" x="144.855469" y="136.795898"/>
</g>
<path style="fill:none;stroke-width:1.2;stroke-linecap:butt;stroke-linejoin:miter;stroke:rgb(0%,0%,0%);stroke-opacity:1;stroke-miterlimit:10;" d="M 154.503906 158.042969 L 136.6875 176.011719 "/>
<path style="fill:none;stroke-width:1.2;stroke-linecap:butt;stroke-linejoin:miter;stroke:rgb(0%,0%,0%);stroke-opacity:1;stroke-miterlimit:10;" d="M 178.972656 164.492188 L 154.503906 158.042969 "/>
<path style="fill:none;stroke-width:1.2;stroke-linecap:butt;stroke-linejoin:miter;stroke:rgb(0%,0%,0%);stroke-opacity:1;stroke-miterlimit:10;" d="M 136.6875 176.011719 L 143.339844 200.425781 "/>
<path style="fill:none;stroke-width:1.2;stroke-linecap:butt;stroke-linejoin:miter;stroke:rgb(0%,0%,0%);stroke-opacity:1;stroke-miterlimit:10;" d="M 143.339844 200.425781 L 167.808594 206.871094 "/>
<path style="fill:none;stroke-width:1.2;stroke-linecap:butt;stroke-linejoin:miter;stroke:rgb(0%,0%,0%);stroke-opacity:1;stroke-miterlimit:10;" d="M 167.808594 206.871094 L 171.132812 219.078125 "/>
<path style="fill:none;stroke-width:1.2;stroke-linecap:butt;stroke-linejoin:miter;stroke:rgb(100%,0%,0%);stroke-opacity:1;stroke-miterlimit:10;" d="M 171.132812 219.078125 L 174.457031 231.285156 "/>
<path style="fill:none;stroke-width:1.2;stroke-linecap:butt;stroke-linejoin:miter;stroke:rgb(0%,0%,0%);stroke-opacity:1;stroke-miterlimit:10;" d="M 167.808594 206.871094 L 185.625 188.90625 "/>
<path style=" stroke:none;fill-rule:nonzero;fill:rgb(100%,100%,100%);fill-opacity:1;" d="M 167.457031 225.785156 L 182.457031 225.785156 L 182.457031 236.785156 L 167.457031 236.785156 Z M 167.457031 225.785156 "/>
<g style="fill:rgb(100%,0%,0%);fill-opacity:1;">
  <use xlink:href="#glyph0-4" x="167.457031" y="234.448242"/>
  <use xlink:href="#glyph0-3" x="174.798828" y="234.448242"/>
</g>
<path style="fill:none;stroke-width:1.2;stroke-linecap:butt;stroke-linejoin:miter;stroke:rgb(0%,0%,0%);stroke-opacity:1;stroke-miterlimit:10;" d="M 185.625 188.90625 L 178.972656 164.492188 "/>
</g>
</svg>

<svg xmlns="http://www.w3.org/2000/svg" xmlns:xlink="http://www.w3.org/1999/xlink" width="300pt" height="300pt" viewBox="0 0 300 300"><defs><symbol overflow="visible"><path d="M.453 1.594v-7.938h4.5v7.938zm.5-.5h3.5v-6.938h-3.5zm0 0"/></symbol><symbol overflow="visible" id="a"><path d="M.89-6.563h3.766v.75h-2.89v1.938h2.61v.734h-2.61V0H.89zm0 0"/></symbol><symbol overflow="visible" id="b"><path d="M.89-6.563H2.08l2.906 5.485v-5.484h.86V0H4.656L1.75-5.484V0H.89zm0 0"/></symbol><symbol overflow="visible" id="c"><path d="M.89-6.563h.876v2.688H5v-2.688h.89V0H5v-3.125H1.766V0H.89zm0 0"/></symbol><symbol overflow="visible" id="d"><path d="M3.547-5.953c-.65 0-1.164.242-1.547.72-.375.48-.563 1.13-.563 1.952 0 .835.188 1.49.563 1.967.383.48.898.72 1.547.72.644 0 1.156-.24 1.53-.72.376-.476.564-1.132.564-1.968 0-.822-.187-1.474-.562-1.954-.375-.477-.887-.72-1.53-.72zm0-.734c.914 0 1.648.312 2.203.937.55.617.828 1.438.828 2.47 0 1.042-.277 1.87-.828 2.483-.555.617-1.29.922-2.203.922-.93 0-1.668-.305-2.22-.922C.774-1.41.5-2.237.5-3.28c0-1.033.273-1.853.828-2.47.55-.625 1.29-.938 2.22-.938zm0 0"/></symbol></defs><g><path fill="#fff" d="M0 0h300v300H0z"/><path d="M60.703 166.27l-.715-12.63" stroke-width="1.2" stroke="#3cc" stroke-miterlimit="10" fill="none"/><path d="M59.988 153.64l-.715-12.632" stroke-width="1.2" stroke="#000" stroke-miterlimit="10" fill="none"/><path d="M57.703 160.77h6v11h-6zm0 0" fill="#fff"/><use xlink:href="#a" x="57.703" y="169.433" fill="#3cc"/><path d="M59.273 141.008L36.68 129.613M59.695 134.55l-18.074-9.113M80.438 127.137l-21.165 13.87M36.68 129.613l-1.43-25.26M35.25 104.352L56.414 90.48M40.63 107.94L57.56 96.85M56.414 90.48l22.594 11.395M79.008 101.875L89.59 94.94" stroke-width="1.2" stroke="#000" stroke-miterlimit="10" fill="none"/><path d="M89.59 94.94l10.582-6.936" stroke-width="1.2" stroke="#3cc" stroke-miterlimit="10" fill="none"/><path d="M79.008 101.875l1.43 25.262M73.207 104.738l1.145 20.21" stroke-width="1.2" stroke="#000" stroke-miterlimit="10" fill="none"/><path d="M97.172 82.504h6v11h-6zm0 0" fill="#fff"/><use xlink:href="#a" x="97.172" y="91.167" fill="#3cc"/><path d="M80.438 127.137l11.296 5.7" stroke-width="1.2" stroke="#000" stroke-miterlimit="10" fill="none"/><path d="M91.734 132.836l11.297 5.695M103.03 138.53l10.583-6.932" stroke-width="1.2" stroke="#00f" stroke-miterlimit="10" fill="none"/><path d="M113.613 131.598l10.582-6.938" stroke-width="1.2" stroke="#000" stroke-miterlimit="10" fill="none"/><path d="M96.03 133.03h14v11h-14zm0 0" fill="#fff"/><g fill="#00f"><use xlink:href="#b" x="96.031" y="141.694"/><use xlink:href="#c" x="103.009" y="141.694"/></g><path d="M124.195 124.66l.61-12.637" stroke-width="1.2" stroke="#000" stroke-miterlimit="10" fill="none"/><path d="M124.805 112.023l.61-12.636" stroke-width="1.2" stroke="#00f" stroke-miterlimit="10" fill="none"/><path d="M130.262 122.422l.488-10.11" stroke-width="1.2" stroke="#000" stroke-miterlimit="10" fill="none"/><path d="M130.75 112.313l.488-10.11M147.855 133.633l-11.832-4.488" stroke-width="1.2" stroke="#00f" stroke-miterlimit="10" fill="none"/><path d="M136.023 129.145l-11.828-4.485" stroke-width="1.2" stroke="#000" stroke-miterlimit="10" fill="none"/><path d="M125.414 99.387l12.207-3.325" stroke-width="1.2" stroke="#00f" stroke-miterlimit="10" fill="none"/><path d="M137.62 96.063l12.208-3.33" stroke-width="1.2" stroke="#000" stroke-miterlimit="10" fill="none"/><path d="M122.414 93.887h7v11h-7zm0 0" fill="#fff"/><use xlink:href="#b" x="122.414" y="102.55" fill="#00f"/><path d="M149.828 92.734l13.867 21.164M156.195 91.59l11.094 16.93M161.22 70.145l-11.392 22.59M163.695 113.898l12.633-.714" stroke-width="1.2" stroke="#000" stroke-miterlimit="10" fill="none"/><path d="M176.328 113.184l12.633-.715" stroke-width="1.2" stroke="#00f" stroke-miterlimit="10" fill="none"/><path d="M163.695 113.898l-7.918 9.868" stroke-width="1.2" stroke="#000" stroke-miterlimit="10" fill="none"/><path d="M155.777 123.766l-7.922 9.867M188.96 112.47l5.696-11.298" stroke-width="1.2" stroke="#00f" stroke-miterlimit="10" fill="none"/><path d="M194.656 101.172l5.7-11.293" stroke-width="1.2" stroke="#000" stroke-miterlimit="10" fill="none"/><path d="M184.785 107.53l4.555-9.038" stroke-width="1.2" stroke="#00f" stroke-miterlimit="10" fill="none"/><path d="M189.34 98.492l4.558-9.035" stroke-width="1.2" stroke="#000" stroke-miterlimit="10" fill="none"/><path d="M185.96 106.97h7v11h-7zm0 0" fill="#fff"/><use xlink:href="#b" x="185.961" y="115.632" fill="#00f"/><path d="M200.355 89.88l-6.937-10.583" stroke-width="1.2" stroke="#000" stroke-miterlimit="10" fill="none"/><path d="M193.418 79.297l-6.934-10.582" stroke-width="1.2" stroke="#00f" stroke-miterlimit="10" fill="none"/><path d="M200.355 89.88l12.63-.716" stroke-width="1.2" stroke="#000" stroke-miterlimit="10" fill="none"/><path d="M212.984 89.164l12.633-.715M186.484 68.715l-12.632.715" stroke-width="1.2" stroke="#00f" stroke-miterlimit="10" fill="none"/><path d="M173.852 69.43l-12.633.715" stroke-width="1.2" stroke="#000" stroke-miterlimit="10" fill="none"/><path d="M184.293 74.8l-10.106.57" stroke-width="1.2" stroke="#00f" stroke-miterlimit="10" fill="none"/><path d="M174.188 75.37l-10.106.575" stroke-width="1.2" stroke="#000" stroke-miterlimit="10" fill="none"/><path d="M183.484 63.215h7v11h-7zm0 0" fill="#fff"/><use xlink:href="#b" x="183.484" y="71.878" fill="#00f"/><path d="M225.617 88.45l6.934 10.577" stroke-width="1.2" stroke="#00f" stroke-miterlimit="10" fill="none"/><path d="M232.55 99.027l6.938 10.582" stroke-width="1.2" stroke="#000" stroke-miterlimit="10" fill="none"/><path d="M218.617 82.95h14v11h-14zm0 0" fill="#fff"/><g fill="#00f"><use xlink:href="#b" x="218.617" y="91.612"/><use xlink:href="#c" x="225.595" y="91.612"/></g><path d="M239.488 109.61l25.262-1.43M239.488 109.61l-11.394 22.593" stroke-width="1.2" stroke="#000" stroke-miterlimit="10" fill="none"/><path d="M147.855 133.633l3.325 12.207" stroke-width="1.2" stroke="#00f" stroke-miterlimit="10" fill="none"/><path d="M151.18 145.84l3.324 12.203" stroke-width="1.2" stroke="#000" stroke-miterlimit="10" fill="none"/><path d="M144.855 128.133h7v11h-7zm0 0" fill="#fff"/><use xlink:href="#b" x="144.855" y="136.796" fill="#00f"/><path d="M154.504 158.043l-17.816 17.97M178.973 164.492l-24.47-6.45M136.688 176.012l6.652 24.414M143.34 200.426l24.47 6.445M167.81 206.87l3.323 12.208" stroke-width="1.2" stroke="#000" stroke-miterlimit="10" fill="none"/><path d="M171.133 219.078l3.324 12.207" stroke-width="1.2" stroke="#f00" stroke-miterlimit="10" fill="none"/><path d="M167.81 206.87l17.815-17.964" stroke-width="1.2" stroke="#000" stroke-miterlimit="10" fill="none"/><path d="M167.457 225.785h15v11h-15zm0 0" fill="#fff"/><g fill="#f00"><use xlink:href="#d" x="167.457" y="234.448"/><use xlink:href="#c" x="174.799" y="234.448"/></g><path d="M185.625 188.906l-6.652-24.414" stroke-width="1.2" stroke="#000" stroke-miterlimit="10" fill="none"/></g></svg>
